ix/video-octagon_broken.svg

<svg viewBox="0 0 24 24" fill="none" xmlns="http://www.w3.org/2000/svg" height="1em" width="1em">
  <path d="M2.91992 8.58003C2.91992 7.46003 3.5199 6.41999 4.4899 5.84999L10.4299 2.42C11.3999 1.86 12.5999 1.86 13.5799 2.42L19.5199 5.84999C20.4899 6.40999 21.0899 7.45003 21.0899 8.58003V15.42C21.0899 16.54 20.4899 17.58 19.5199 18.15L13.5799 21.58C12.6099 22.14 11.4099 22.14 10.4299 21.58L4.4899 18.15C3.5199 17.59 2.91992 16.55 2.91992 15.42V12.66" stroke="#292D32" stroke-width="1.5" stroke-linecap="round" stroke-linejoin="round"/>
  <path d="M9.75 11.9999V10.7999C9.75 9.25989 10.84 8.62993 12.17 9.39993L13.21 9.9999L14.25 10.5999C15.58 11.3699 15.58 12.6299 14.25 13.3999L13.21 13.9999L12.17 14.5999C10.84 15.3699 9.75 14.7399 9.75 13.1999V11.9999Z" stroke="#292D32" stroke-width="1.5" stroke-miterlimit="10" stroke-linecap="round" stroke-linejoin="round"/>
</svg>

<svg viewBox="0 0 24 24" fill="none" xmlns="http://www.w3.org/2000/svg" height="1em" width="1em">
  <path d="M2.92 8.58c0-1.12.6-2.16 1.57-2.73l5.94-3.43c.97-.56 2.17-.56 3.15 0l5.94 3.43c.97.56 1.57 1.6 1.57 2.73v6.84c0 1.12-.6 2.16-1.57 2.73l-5.94 3.43c-.97.56-2.17.56-3.15 0l-5.94-3.43a3.15 3.15 0 0 1-1.57-2.73v-2.76" stroke="#292D32" stroke-width="1.5" stroke-linecap="round" stroke-linejoin="round"/>
  <path d="M9.75 12v-1.2c0-1.54 1.09-2.17 2.42-1.4l1.04.6 1.04.6c1.33.77 1.33 2.03 0 2.8l-1.04.6-1.04.6c-1.33.77-2.42.14-2.42-1.4V12Z" stroke="#292D32" stroke-width="1.5" stroke-miterlimit="10" stroke-linecap="round" stroke-linejoin="round"/>
</svg>
